X:1
T:Title
%%score { ( 1 3 ) | ( 2 4 5 ) }
L:1/8
Q:1/4=106
M:4/4
K:A
V:1 treble nm="Grand Piano"
V:3 treble 
V:2 bass 
V:4 bass 
V:5 bass 
V:1
 =cB c4 [Gd]2 | [=CA]2 [CA]6 | [^A,D=G]2 [A,D^E]4[K:bass] [^E,A,D]2 | z2 =C6 | =cB c4 d2 | %5
w: Elmer~A.~Shumard * * *|||||
 A2 [^EA]6 | [B,^EA]2 [B,E=G]4 [B,EA]2 | [^A,E]2 z2 =c4 | =cB c4 [Gd]2 | [=C=GA]2 [CA]6 | %10
w: |||||
 z2 [D^E]4 z2 | [CA]6 z2 | [D^E][D=G] [DE]4 D2 |[M:9/8] z2 ^E- E6 |[M:4/4] ^E2 [EA]4 [=E=G]2 | %15
w: |||||
 ^E6 z2 |] %16
w: |
V:2
 [^E,A,^E][E,G,E] [E,A,E]4 [E,B,]2 | ^E,2 z2 z2 ^D2 | ^A,,2 A,,4 A,,D, | z2 A,2 =G,2 ^E,2 | %4
 [^E,A,^E][E,G,E] [E,A,E]4 [E,^A,E]2 | [^E,=C^E]2 z2 z2 C2 | [=G,,=G,]2 [G,,G,]4 [G,,G,]2 | z4 E4 | %8
 [^E,A,^E][E,G,E] [E,A,E]4 [E,B,]2 | ^E,2 z2 z2 ^D2 | ^A,,2 z2 ^E,2 [A,,D,]2 | [A,,E,]6 z2 | %12
 [^A,,=G,][A,,G,] [B,,^G,]4 [^E,G,B,]2 |[M:9/8] [^E,A,]2 [=C,A,=C]- [C,A,C]3 [^C,G,]3 | %14
[M:4/4] [=C,A,=C]2 [C,C]4 [C,^A,]2 | [^E,A,]6 z2 |] %16
V:3
 x8 | z2 ^E4 z2 | x6[K:bass] x2 | [A,=C]2 z2 ^A,2 =A,2 | x8 | z2 D4 z2 | x8 | =G2- [DG]2 z2 ^A,2 | %8
 x8 | z2 ^E4 z2 | [^A,D=G]2 A,2 z2 [DG]2 | x8 | x8 |[M:9/8] .=C3 z3 B,3 |[M:4/4] x8 | x8 |] %16
V:4
 x8 | z2 ^E,6 | x8 | ^E,6 z2 | x8 | z2 D,6 | x8 | z2 ^E,2 =G,2 z2 | x8 | z2 ^E,6 | z2 ^A,,4 z2 | %11
 x8 | x8 |[M:9/8] x9 |[M:4/4] x8 | x8 |] %16
V:5
 x8 | x8 | x8 | x8 | x8 | x8 | x8 | =C,8 | x8 | x8 | x8 | x8 | x8 |[M:9/8] x9 |[M:4/4] x8 | x8 |] %16

